world_stage/static/flags/rect/bhr.svg

<svg height="1197.3333" viewBox="0 0 1796 1197.3333" width="1796" xmlns="http://www.w3.org/2000/svg"><path d="m0 0h1347v898h-1347z" fill="#fff" transform="matrix(1.3333333 0 0 -1.3333333 0 1197.3333)"/><path d="m0 0 230-90-230-90 230-90-230-90 230-90-230-90 230-90-230-90 230-90-224.889-88h1024.889v898z" fill="#ce1126" transform="matrix(1.3333333 0 0 -1.3333333 422.6664 -.000267)"/></svg>

<?xml version="1.0" encoding="UTF-8" standalone="no"?>
<!-- Created with Inkscape (http://www.inkscape.org/) -->

<svg
   version="1.1"
   id="svg1"
   width="1796"
   height="1197.3333"
   viewBox="0 0 1796 1197.3333"
   sodipodi:docname="bh.ai"
   xmlns:inkscape="http://www.inkscape.org/namespaces/inkscape"
   xmlns:sodipodi="http://sodipodi.sourceforge.net/DTD/sodipodi-0.dtd"
   xmlns="http://www.w3.org/2000/svg"
   xmlns:svg="http://www.w3.org/2000/svg">
  <defs
     id="defs1" />
  <sodipodi:namedview
     id="namedview1"
     pagecolor="#ffffff"
     bordercolor="#000000"
     borderopacity="0.25"
     inkscape:showpageshadow="2"
     inkscape:pageopacity="0.0"
     inkscape:pagecheckerboard="0"
     inkscape:deskcolor="#d1d1d1">
    <inkscape:page
       x="0"
       y="0"
       inkscape:label="1"
       id="page1"
       width="1796"
       height="1197.3333"
       margin="0"
       bleed="0" />
  </sodipodi:namedview>
  <g
     id="layer-MC0"
     inkscape:groupmode="layer"
     inkscape:label="Layer 1">
    <path
       id="path1"
       d="M 0,0 H 1347 V 898 H 0 Z"
       style="fill:#ffffff;fill-opacity:1;fill-rule:nonzero;stroke:none"
       transform="matrix(1.3333333,0,0,-1.3333333,0,1197.3333)" />
    <path
       id="path2"
       d="M 0,0 230,-90 0,-180 230,-270 0,-360 230,-450 0,-540 230,-630 0,-720 230,-810 5.111,-898 H 1030 V 0 Z"
       style="fill:#ce1126;fill-opacity:1;fill-rule:nonzero;stroke:none"
       transform="matrix(1.3333333,0,0,-1.3333333,422.6664,-2.6666667e-4)" />
  </g>
</svg>
